;FLAVOR:Marlin
;TIME:323650
;Filament used: 9391.53m
;Layer height: 2
;MINX:496
;MINY:496
;MINZ:0.3
;MAXX:1504
;MAXY:1504
;MAXZ:1000.3
;Generated with Cura_SteamEngine master
M104 S200
M105
M109 S200
M82 ;absolute extrusion mode
G28 ;Home
G1 Z15.0 F6000 ;Move the platform down 15mm
;Prime the extruder
G92 E0
G1 F200 E3
G92 E0
G92 E0
G92 E0
G1 F1500 E-6.5
;LAYER_COUNT:501
;LAYER:0
M107
G0 F3600 X497.004 Y497.369 Z0.3
;TYPE:SKIRT
G1 F1500 E0
G1 F1800 X497.406 Y496.972 E0.05314
G1 X497.86 Y496.635 E0.10632
G1 X498.357 Y496.366 E0.15947
G1 X498.887 Y496.169 E0.21265
G1 X499.44 Y496.05 E0.26585
G1 X500.218 Y496.002 E0.33916
G1 X500.33 Y496 E0.3497
G1 X1499.35 Y496 E94.31031
G1 X1500.048 Y496.01 E94.37596
G1 X1500.612 Y496.058 E94.4292
G1 X1501.162 Y496.185 E94.48229
G1 X1501.69 Y496.389 E94.53553
G1 X1502.184 Y496.664 E94.58871
G1 X1502.633 Y497.007 E94.64185
G1 X1503.03 Y497.409 E94.69499
G1 X1503.367 Y497.864 E94.74824
G1 X1503.635 Y498.361 E94.80135
G1 X1503.831 Y498.891 E94.8545
G1 X1503.951 Y499.444 E94.90772
G1 X1503.998 Y500.218 E94.98065
G1 X1504 Y500.33 E94.99118
G1 X1504 Y1499.314 E188.94841
G1 X1503.991 Y1500.041 E189.01679
G1 X1503.944 Y1500.604 E189.06993
G1 X1503.818 Y1501.155 E189.12309
G1 X1503.616 Y1501.683 E189.17626
G1 X1503.341 Y1502.177 E189.22943
G1 X1502.999 Y1502.627 E189.28259
G1 X1502.597 Y1503.025 E189.3358
G1 X1502.144 Y1503.362 E189.3889
G1 X1501.647 Y1503.632 E189.4421
G1 X1501.117 Y1503.829 E189.49528
G1 X1500.565 Y1503.95 E189.54843
G1 X1499.782 Y1503.998 E189.62221
G1 X1499.67 Y1504 E189.63274
G1 X500.655 Y1504 E283.59288
G1 X499.957 Y1503.991 E283.65854
G1 X499.394 Y1503.943 E283.71168
G1 X498.843 Y1503.817 E283.76484
G1 X498.315 Y1503.615 E283.81801
G1 X497.821 Y1503.34 E283.87119
G1 X497.371 Y1502.998 E283.92435
G1 X496.973 Y1502.596 E283.97755
G1 X496.637 Y1502.142 E284.03068
G1 X496.367 Y1501.645 E284.08387
G1 X496.17 Y1501.115 E284.13705
G1 X496.05 Y1500.563 E284.19018
G1 X496.001 Y1499.766 E284.26528
G1 X496 Y500.62 E378.23775
G1 X496.009 Y499.955 E378.3003
G1 X496.057 Y499.392 E378.35344
G1 X496.183 Y498.841 E378.4066
G1 X496.386 Y498.313 E378.45981
G1 X496.662 Y497.819 E378.51303
G1 X497.004 Y497.369 E378.56619
G1 F1500 E372.06619
;MESH:BigCube.STL
G0 F3600 X501.014 Y501.014
G0 X1498.9 Y1498.93
G1 F1500 E378.56619
G0 F3600 X1499 Y1499
;TYPE:WALL-OUTER
G1 F1800 X501 Y1499 E472.43086
G1 X501 Y501 E566.29554
G1 X1499 Y501 E660.16022
G1 X1499 Y1499 E754.0249
G0 F3600 X1498 Y1499
G0 X1498 Y1498.9
G0 X1497.01 Y1497.01
;TYPE:SKIN
G1 F1800 X502.99 Y1497.01 E847.51524
G1 X502.99 Y502.99 E941.00559
G1 X1497.01 Y502.99 E1034.49594
G1 X1497.01 Y1497.01 E1127.98628
G0 F3600 X1496.109 Y506.16
G1 F1800 X1493.839 Y503.889 E1128.28828
G0 F3600 X1491.011 Y503.889
G1 F1800 X1496.109 Y508.988 E1128.96644
G0 F3600 X1496.109 Y511.817
G1 F1800 X1488.182 Y503.889 E1130.02088
G0 F3600 X1485.354 Y503.889
G1 F1800 X1496.109 Y514.645 E1131.45148
G0 F3600 X1496.109 Y517.474
G1 F1800 X1482.525 Y503.889 E1133.25836
G0 F3600 X1479.697 Y503.889
G1 F1800 X1496.109 Y520.302 E1135.4414
G0 F3600 X1496.109 Y523.131
G1 F1800 X1476.868 Y503.889 E1138.00073
G0 F3600 X1474.04 Y503.889
G1 F1800 X1496.109 Y525.959 E1140.93621
G0 F3600 X1496.109 Y528.787
G1 F1800 X1471.212 Y503.889 E1144.24784
G0 F3600 X1468.383 Y503.889
G1 F1800 X1496.109 Y531.616 E1147.93576
G0 F3600 X1496.109 Y534.444
G1 F1800 X1465.555 Y503.889 E1151.99984
G0 F3600 X1462.726 Y503.889
G1 F1800 X1496.109 Y537.273 E1156.4402
G0 F3600 X1496.109 Y540.101
G1 F1800 X1459.898 Y503.889 E1161.25672
G0 F3600 X1457.069 Y503.889
G1 F1800 X1496.109 Y542.93 E1166.44953
G0 F3600 X1496.109 Y545.758
G1 F1800 X1454.241 Y503.889 E1172.01848
G0 F3600 X1451.413 Y503.889
G1 F1800 X1496.109 Y548.586 E1177.9636
G0 F3600 X1496.109 Y551.415
G1 F1800 X1448.584 Y503.889 E1184.285
G0 F3600 X1445.756 Y503.889
G1 F1800 X1496.109 Y554.243 E1190.98255
G0 F3600 X1496.109 Y557.072
G1 F1800 X1442.927 Y503.889 E1198.0564
G0 F3600 X1440.099 Y503.889
G1 F1800 X1496.109 Y559.9 E1205.50639
G0 F3600 X1496.109 Y562.729
G1 F1800 X1437.27 Y503.889 E1213.33268
G0 F3600 X1434.442 Y503.889
G1 F1800 X1496.109 Y565.557 E1221.53512
G0 F3600 X1496.109 Y568.385
G1 F1800 X1431.614 Y503.889 E1230.11371
G0 F3600 X1428.785 Y503.889
G1 F1800 X1496.109 Y571.214 E1239.06859
G0 F3600 X1496.109 Y574.042
G1 F1800 X1425.957 Y503.889 E1248.39962
G0 F3600 X1423.128 Y503.889
G1 F1800 X1496.109 Y576.871 E1258.10695
G0 F3600 X1496.109 Y579.699
G1 F1800 X1420.3 Y503.889 E1268.19042
G0 F3600 X1417.471 Y503.889
G1 F1800 X1496.109 Y582.528 E1278.65019
G0 F3600 X1496.109 Y585.356
G1 F1800 X1414.643 Y503.889 E1289.4861
G0 F3600 X1411.815 Y503.889
G1 F1800 X1496.109 Y588.184 E1300.69818
G0 F3600 X1496.109 Y591.013
G1 F1800 X1408.986 Y503.889 E1312.28654
G0 F3600 X1406.158 Y503.889
G1 F1800 X1496.109 Y593.841 E1324.25105
G0 F3600 X1496.109 Y596.67
G1 F1800 X1403.329 Y503.889 E1336.59185
G0 F3600 X1400.501 Y503.889
G1 F1800 X1496.109 Y599.498 E1349.30881
G0 F3600 X1496.109 Y602.326
G1 F1800 X1397.672 Y503.889 E1362.40198
G0 F3600 X1394.844 Y503.889
G1 F1800 X1496.109 Y605.155 E1375.87138
G0 F3600 X1496.109 Y607.983
G1 F1800 X1392.016 Y503.889 E1389.71693
G0 F3600 X1389.187 Y503.889
G1 F1800 X1496.109 Y610.812 E1403.93877
G0 F3600 X1496.109 Y613.64
G1 F1800 X1386.359 Y503.889 E1418.53676
G0 F3600 X1383.53 Y503.889
G1 F1800 X1496.109 Y616.469 E1433.51104
G0 F3600 X1496.109 Y619.297
G1 F1800 X1380.702 Y503.889 E1448.86148
G0 F3600 X1377.873 Y503.889
G1 F1800 X1496.109 Y622.125 E1464.58813
G0 F3600 X1496.109 Y624.954
G1 F1800 X1375.045 Y503.889 E1480.69101
G0 F3600 X1372.217 Y503.889
G1 F1800 X1496.109 Y627.782 E1497.17004
G0 F3600 X1496.109 Y630.611
G1 F1800 X1369.388 Y503.889 E1514.02536
G0 F3600 X1366.56 Y503.889
G1 F1800 X1496.109 Y633.439 E1531.25683
G0 F3600 X1496.109 Y636.268
G1 F1800 X1363.731 Y503.889 E1548.86459
G0 F3600 X1360.903 Y503.889
G1 F1800 X1496.109 Y639.096 E1566.84851
G0 F3600 X1496.109 Y641.924
G1 F1800 X1358.074 Y503.889 E1585.20864
G0 F3600 X1355.246 Y503.889
G92 E0
G1 F1800 X1496.109 Y644.753 E18.73636
G0 F3600 X1496.109 Y647.581
G1 F1800 X1352.418 Y503.889 E37.84887
G0 F3600 X1349.589 Y503.889
G1 F1800 X1496.109 Y650.41 E57.33766
G0 F3600 X1496.109 Y653.238
G1 F1800 X1346.761 Y503.889 E77.20261
G0 F3600 X1343.932 Y503.889
G1 F1800 X1496.109 Y656.067 E97.44385
G0 F3600 X1496.109 Y658.895
G1 F1800 X1341.104 Y503.889 E118.06125
G0 F3600 X1338.275 Y503.889
G1 F1800 X1496.109 Y661.723 E139.05486
G0 F3600 X1496.109 Y664.552
G1 F1800 X1335.447 Y503.889 E160.4247
G0 F3600 X1332.619 Y503.889
G1 F1800 X1496.109 Y667.38 E182.17069
G0 F3600 X1496.109 Y670.209
G1 F1800 X1329.79 Y503.889 E204.29296
G0 F3600 X1326.962 Y503.889
G1 F1800 X1496.109 Y673.037 E226.79139
G0 F3600 X1496.109 Y675.866
G1 F1800 X1324.133 Y503.889 E249.66611
G0 F3600 X1321.305 Y503.889
G1 F1800 X1496.109 Y678.694 E272.91698
G0 F3600 X1496.109 Y681.522
G1 F1800 X1318.476 Y503.889 E296.54408
G0 F3600 X1315.648 Y503.889
G1 F1800 X1496.109 Y684.351 E320.54739
G0 F3600 X1496.109 Y687.179
G1 F1800 X1312.82 Y503.889 E344.92686
G0 F3600 X1309.991 Y503.889
G1 F1800 X1496.109 Y690.008 E369.68262
G0 F3600 X1496.109 Y692.836
G1 F1800 X1307.163 Y503.889 E394.81453
G0 F3600 X1304.334 Y503.889
G1 F1800 X1496.109 Y695.665 E420.32272
G0 F3600 X1496.109 Y698.493
G1 F1800 X1301.506 Y503.889 E446.20707
G0 F3600 X1298.677 Y503.889
G1 F1800 X1496.109 Y701.321 E472.46765
G0 F3600 X1496.109 Y704.15
G1 F1800 X1295.849 Y503.889 E499.10444
G0 F3600 X1293.021 Y503.889
G1 F1800 X1496.109 Y706.978 E526.11739
G0 F3600 X1496.109 Y709.807
G1 F1800 X1290.192 Y503.889 E553.50662
G0 F3600 X1287.364 Y503.889
G1 F1800 X1496.109 Y712.635 E581.27201
G0 F3600 X1496.109 Y715.464
G1 F1800 X1284.535 Y503.889 E609.41369
G0 F3600 X1281.707 Y503.889
G1 F1800 X1496.109 Y718.292 E637.93152
G0 F3600 X1496.109 Y721.12
G1 F1800 X1278.878 Y503.889 E666.82557
G0 F3600 X1276.05 Y503.889
G1 F1800 X1496.109 Y723.949 E696.09585
G0 F3600 X1496.109 Y726.777
G1 F1800 X1273.222 Y503.889 E725.74227
G0 F3600 X1270.393 Y503.889
G1 F1800 X1496.109 Y729.606 E755.76499
G0 F3600 X1496.109 Y732.434
G1 F1800 X1267.565 Y503.889 E786.16386
G0 F3600 X1264.736 Y503.889
G1 F1800 X1496.109 Y735.263 E816.93901
G0 F3600 X1496.109 Y738.091
G1 F1800 X1261.908 Y503.889 E848.09032
G0 F3600 X1259.079 Y503.889
G1 F1800 X1496.109 Y740.919 E879.61785
G0 F3600 X1496.109 Y743.748
G1 F1800 X1256.251 Y503.889 E911.5216
G0 F3600 X1253.423 Y503.889
G1 F1800 X1496.109 Y746.576 E943.80151
G0 F3600 X1496.109 Y749.405
G1 F1800 X1250.594 Y503.889 E976.4577
G0 F3600 X1247.766 Y503.889
G1 F1800 X1496.109 Y752.233 E1009.49005
G0 F3600 X1496.109 Y755.062
G1 F1800 X1244.937 Y503.889 E1042.89869
G0 F3600 X1242.109 Y503.889
G1 F1800 X1496.109 Y757.89 E1076.68348
G0 F3600 X1496.109 Y760.718
G1 F1800 X1239.281 Y503.889 E1110.84442
G0 F3600 X1236.452 Y503.889
G1 F1800 X1496.109 Y763.547 E1145.38165
G0 F3600 X1496.109 Y766.375
G1 F1800 X1233.624 Y503.889 E1180.29504
G0 F3600 X1230.795 Y503.889
G1 F1800 X1496.109 Y769.204 E1215.58471
G0 F3600 X1496.109 Y772.032
G1 F1800 X1227.967 Y503.889 E1251.25054
G0 F3600 X1225.138 Y503.889
G1 F1800 X1496.109 Y774.861 E1287.29265
G0 F3600 X1496.109 Y777.689
G1 F1800 X1222.31 Y503.889 E1323.71092
G0 F3600 X1219.482 Y503.889
G1 F1800 X1496.109 Y780.517 E1360.50534
G0 F3600 X1496.109 Y783.346
G1 F1800 X1216.653 Y503.889 E1397.67606
G0 F3600 X1213.825 Y503.889
G1 F1800 X1496.109 Y786.174 E1435.22292
G0 F3600 X1496.109 Y789.003
G1 F1800 X1210.996 Y503.889 E1473.14607
G0 F3600 X1208.168 Y503.889
G1 F1800 X1496.109 Y791.831 E1511.44538
G0 F3600 X1496.109 Y794.66
G1 F1800 X1205.339 Y503.889 E1550.12097
G0 F3600 X1202.511 Y503.889
G1 F1800 X1496.109 Y797.488 E1589.17272
G0 F3600 X1496.109 Y800.316
G92 E0
G1 F1800 X1199.683 Y503.889 E39.4279
G0 F3600 X1196.854 Y503.889
G1 F1800 X1496.109 Y803.145 E79.23209
G0 F3600 X1496.109 Y805.973
G1 F1800 X1194.026 Y503.889 E119.41244
G0 F3600 X1191.197 Y503.889
G1 F1800 X1496.109 Y808.802 E159.96907
G0 F3600 X1496.109 Y811.63
G1 F1800 X1188.369 Y503.889 E200.90185
G0 F3600 X1185.54 Y503.889
G1 F1800 X1496.109 Y814.459 E242.21093
G0 F3600 X1496.109 Y817.287
G1 F1800 X1182.712 Y503.889 E283.89615
G0 F3600 X1179.884 Y503.889
G1 F1800 X1496.109 Y820.115 E325.95754
G0 F3600 X1496.109 Y822.944
G1 F1800 X1177.055 Y503.889 E368.3952
G0 F3600 X1174.227 Y503.889
G1 F1800 X1496.109 Y825.772 E411.20903
G0 F3600 X1496.109 Y828.601
G1 F1800 X1171.398 Y503.889 E454.39914
G0 F3600 X1168.57 Y503.889
G1 F1800 X1496.109 Y831.429 E497.9654
G0 F3600 X1496.109 Y834.258
G1 F1800 X1165.741 Y503.889 E541.90796
G0 F3600 X1162.913 Y503.889
G1 F1800 X1496.109 Y837.086 E586.22666
G0 F3600 X1496.109 Y839.914
G1 F1800 X1160.085 Y503.889 E630.92152
G0 F3600 X1157.256 Y503.889
G1 F1800 X1496.109 Y842.743 E675.99267
G0 F3600 X1496.109 Y845.571
G1 F1800 X1154.428 Y503.889 E721.43997
G0 F3600 X1151.599 Y503.889
G1 F1800 X1496.109 Y848.4 E767.26356
G0 F3600 X1496.109 Y851.228
G1 F1800 X1148.771 Y503.889 E813.46331
G0 F3600 X1145.942 Y503.889
G1 F1800 X1496.109 Y854.057 E860.03934
G0 F3600 X1496.109 Y856.885
G1 F1800 X1143.114 Y503.889 E906.99153
G0 F3600 X1140.286 Y503.889
G1 F1800 X1496.109 Y859.713 E954.31987
G0 F3600 X1496.109 Y862.542
G1 F1800 X1137.457 Y503.889 E1002.02449
G0 F3600 X1134.629 Y503.889
G1 F1800 X1496.109 Y865.37 E1050.10528
G0 F3600 X1496.109 Y868.199
G1 F1800 X1131.8 Y503.889 E1098.56234
G0 F3600 X1128.972 Y503.889
G1 F1800 X1496.109 Y871.027 E1147.39557
G0 F3600 X1496.109 Y873.855
G1 F1800 X1126.143 Y503.889 E1196.60501
G0 F3600 X1123.315 Y503.889
G1 F1800 X1496.109 Y876.684 E1246.19068
G0 F3600 X1496.109 Y879.512
G1 F1800 X1120.487 Y503.889 E1296.1525
G0 F3600 X1117.658 Y503.889
G1 F1800 X1496.109 Y882.341 E1346.4906
G0 F3600 X1496.109 Y885.169
G1 F1800 X1114.83 Y503.889 E1397.20486
G0 F3600 X1112.001 Y503.889
G1 F1800 X1496.109 Y887.998 E1448.29541
G0 F3600 X1496.109 Y890.826
G1 F1800 X1109.173 Y503.889 E1499.76212
G0 F3600 X1106.344 Y503.889
G1 F1800 X1496.109 Y893.654 E1551.60504
G0 F3600 X1496.109 Y896.483
G1 F1800 X1103.516 Y503.889 E1603.82418
G0 F3600 X1100.688 Y503.889
G92 E0
G1 F1800 X1496.109 Y899.311 E52.5953
G0 F3600 X1496.109 Y902.14
G1 F1800 X1097.859 Y503.889 E105.56688
G0 F3600 X1095.031 Y503.889
G1 F1800 X1496.109 Y904.968 E158.91463
G0 F3600 X1496.109 Y907.797
G1 F1800 X1092.202 Y503.889 E212.63865
G0 F3600 X1089.374 Y503.889
G1 F1800 X1496.109 Y910.625 E266.73883
G0 F3600 X1496.109 Y913.453
G1 F1800 X1086.545 Y503.889 E321.21524
G0 F3600 X1083.717 Y503.889
G1 F1800 X1496.109 Y916.282 E376.06786
G0 F3600 X1496.109 Y919.11
G1 F1800 X1080.889 Y503.889 E431.29664
G0 F3600 X1078.06 Y503.889
G1 F1800 X1496.109 Y921.939 E486.9017
G0 F3600 X1496.109 Y924.767
G1 F1800 X1075.232 Y503.889 E542.88292
G0 F3600 X1072.403 Y503.889
G1 F1800 X1496.109 Y927.596 E599.24043
G0 F3600 X1496.109 Y930.424
G1 F1800 X1069.575 Y503.889 E655.97409
G0 F3600 X1066.746 Y503.889
G1 F1800 X1496.109 Y933.252 E713.08397
G0 F3600 X1496.109 Y936.081
G1 F1800 X1063.918 Y503.889 E770.57008
G0 F3600 X1061.09 Y503.889
G1 F1800 X1496.109 Y938.909 E828.43233
G0 F3600 X1496.109 Y941.738
G1 F1800 X1058.261 Y503.889 E886.67088
G0 F3600 X1055.433 Y503.889
G1 F1800 X1496.109 Y944.566 E945.28558
G0 F3600 X1496.109 Y947.395
G1 F1800 X1052.604 Y503.889 E1004.27656
G0 F3600 X1049.776 Y503.889
G1 F1800 X1496.109 Y950.223 E1063.6437
G0 F3600 X1496.109 Y953.051
G1 F1800 X1046.947 Y503.889 E1123.38707
G0 F3600 X1044.119 Y503.889
G1 F1800 X1496.109 Y955.88 E1183.50665
G0 F3600 X1496.109 Y958.708
G1 F1800 X1041.291 Y503.889 E1244.00239
G0 F3600 X1038.462 Y503.889
G1 F1800 X1496.109 Y961.537 E1304.87441
G0 F3600 X1496.109 Y964.365
G1 F1800 X1035.634 Y503.889 E1366.12259
G0 F3600 X1032.805 Y503.889
G1 F1800 X1496.109 Y967.194 E1427.74705
G0 F3600 X1496.109 Y970.022
G1 F1800 X1029.977 Y503.889 E1489.74767
G0 F3600 X1027.148 Y503.889
G1 F1800 X1496.109 Y972.85 E1552.12451
G0 F3600 X1496.109 Y975.679
G1 F1800 X1024.32 Y503.889 E1614.87757
G0 F3600 X1021.492 Y503.889
G92 E0
G1 F1800 X1496.109 Y978.507 E63.12922
G0 F3600 X1496.109 Y981.336
G1 F1800 X1018.663 Y503.889 E126.63472
G0 F3600 X1015.835 Y503.889
G1 F1800 X1496.109 Y984.164 E190.51638
G0 F3600 X1496.109 Y986.993
G1 F1800 X1013.006 Y503.889 E254.77432
G0 F3600 X1010.178 Y503.889
G1 F1800 X1496.109 Y989.821 E319.40842
G0 F3600 X1496.109 Y992.649
G1 F1800 X1007.349 Y503.889 E384.41874
G0 F3600 X1004.521 Y503.889
G1 F1800 X1496.109 Y995.478 E449.80528
G0 F3600 X1496.109 Y998.306
G1 F1800 X1001.693 Y503.889 E515.56798
G0 F3600 X998.864 Y503.889
G1 F1800 X1496.109 Y1001.135 E581.70696
G0 F3600 X1496.109 Y1003.963
G1 F1800 X996.036 Y503.889 E648.22209
G0 F3600 X993.207 Y503.889
G1 F1800 X1496.109 Y1006.792 E715.11352
G0 F3600 X1496.109 Y1009.62
G1 F1800 X990.379 Y503.889 E782.3811
G0 F3600 X987.55 Y503.889
G1 F1800 X1496.109 Y1012.448 E850.0249
G0 F3600 X1496.109 Y1015.277
G1 F1800 X984.722 Y503.889 E918.04492
G0 F3600 X981.894 Y503.889
G1 F1800 X1496.109 Y1018.105 E986.44109
G0 F3600 X1496.109 Y1020.934
G1 F1800 X979.065 Y503.889 E1055.21355
G0 F3600 X976.237 Y503.889
G1 F1800 X1496.109 Y1023.762 E1124.36217
G0 F3600 X1496.109 Y1026.591
G1 F1800 X973.408 Y503.889 E1193.88707
G0 F3600 X970.58 Y503.889
G1 F1800 X1496.109 Y1029.419 E1263.78813
G0 F3600 X1496.109 Y1032.247
G1 F1800 X967.751 Y503.889 E1334.06541
G0 F3600 X964.923 Y503.889
G1 F1800 X1496.109 Y1035.076 E1404.71891
G0 F3600 X1496.109 Y1037.904
G1 F1800 X962.095 Y503.889 E1475.74856
G0 F3600 X959.266 Y503.889
G1 F1800 X1496.109 Y1040.733 E1547.1545
G0 F3600 X1496.109 Y1043.561
G1 F1800 X956.438 Y503.889 E1618.9366
G0 F3600 X953.609 Y503.889
G92 E0
G1 F1800 X1496.109 Y1046.39 E72.15838
G0 F3600 X1496.109 Y1049.218
G1 F1800 X950.781 Y503.889 E144.69292
G0 F3600 X947.953 Y503.889
G1 F1800 X1496.109 Y1052.046 E217.60361
G0 F3600 X1496.109 Y1054.875
G1 F1800 X945.124 Y503.889 E290.89059
G0 F3600 X942.296 Y503.889
G1 F1800 X1496.109 Y1057.703 E364.55372
G0 F3600 X1496.109 Y1060.532
G1 F1800 X939.467 Y503.889 E438.59314
G0 F3600 X936.639 Y503.889
G1 F1800 X1496.109 Y1063.36 E513.00872
G0 F3600 X1496.109 Y1066.189
