;FLAVOR:Marlin
;TIME:2921
;Filament used: 37.5004m
;Layer height: 2
;MINX:-124
;MINY:-124
;MINZ:0.3
;MAXX:124
;MAXY:124
;MAXZ:50.3
;Generated with Cura_SteamEngine master
M104 S200
M105
M109 S200
M82 ;absolute extrusion mode
G28 ;Home
G1 Z15.0 F6000 ;Move the platform down 15mm
;Prime the extruder
G92 E0
G1 F200 E3
G92 E0
G92 E0
G92 E0
G1 F1500 E-6.5
;LAYER_COUNT:26
;LAYER:0
M107
;MESH:Cube(1).STL
G0 F3600 X-124 Y124 Z0.3
;TYPE:WALL-OUTER
G1 F1500 E0
G1 F1800 X-124 Y-124 E23.32509
G1 X124 Y-124 E46.65018
G1 X124 Y124 E69.97527
G1 X-124 Y124 E93.30036
G0 F3600 X-124 Y123
G0 X-123.9 Y123
G0 X-122.01 Y122.01
;TYPE:SKIN
G1 F1800 X-122.01 Y-122.01 E116.25112
G1 X122.01 Y-122.01 E139.20188
G1 X122.01 Y122.01 E162.15264
G1 X-122.01 Y122.01 E185.1034
G0 F3600 X-121.109 Y119.306
G1 F1800 X-119.306 Y121.109 E185.34322
G0 F3600 X-116.478 Y121.109
G1 F1800 X-121.109 Y116.478 E185.95919
G0 F3600 X-121.109 Y113.649
G1 F1800 X-113.649 Y121.109 E186.95145
G0 F3600 X-110.821 Y121.109
G1 F1800 X-121.109 Y110.821 E188.31987
G0 F3600 X-121.109 Y107.992
G1 F1800 X-107.992 Y121.109 E190.06457
G0 F3600 X-105.164 Y121.109
G1 F1800 X-121.109 Y105.164 E192.18542
G0 F3600 X-121.109 Y102.336
G1 F1800 X-102.336 Y121.109 E194.68243
G0 F3600 X-99.507 Y121.109
G1 F1800 X-121.109 Y99.507 E197.55573
G0 F3600 X-121.109 Y96.679
G1 F1800 X-96.679 Y121.109 E200.80518
G0 F3600 X-93.85 Y121.109
G1 F1800 X-121.109 Y93.85 E204.43092
G0 F3600 X-121.109 Y91.022
G1 F1800 X-91.022 Y121.109 E208.43282
G0 F3600 X-88.193 Y121.109
G1 F1800 X-121.109 Y88.193 E212.811
G0 F3600 X-121.109 Y85.365
G1 F1800 X-85.365 Y121.109 E217.56533
G0 F3600 X-82.537 Y121.109
G1 F1800 X-121.109 Y82.537 E222.69582
G0 F3600 X-121.109 Y79.708
G1 F1800 X-79.708 Y121.109 E228.2026
G0 F3600 X-76.88 Y121.109
G1 F1800 X-121.109 Y76.88 E234.08553
G0 F3600 X-121.109 Y74.051
G1 F1800 X-74.051 Y121.109 E240.34475
G0 F3600 X-71.223 Y121.109
G1 F1800 X-121.109 Y71.223 E246.98012
G0 F3600 X-121.109 Y68.394
G1 F1800 X-68.394 Y121.109 E253.99178
G0 F3600 X-65.566 Y121.109
G1 F1800 X-121.109 Y65.566 E261.3796
G0 F3600 X-121.109 Y62.738
G1 F1800 X-62.738 Y121.109 E269.14356
G0 F3600 X-59.909 Y121.109
G1 F1800 X-121.109 Y59.909 E277.28382
G0 F3600 X-121.109 Y57.081
G1 F1800 X-57.081 Y121.109 E285.80023
G0 F3600 X-54.252 Y121.109
G1 F1800 X-121.109 Y54.252 E294.69293
G0 F3600 X-121.109 Y51.424
G1 F1800 X-51.424 Y121.109 E303.96178
G0 F3600 X-48.595 Y121.109
G1 F1800 X-121.109 Y48.595 E313.60692
G0 F3600 X-121.109 Y45.767
G1 F1800 X-45.767 Y121.109 E323.62821
G0 F3600 X-42.939 Y121.109
G1 F1800 X-121.109 Y42.939 E334.02566
G0 F3600 X-121.109 Y40.11
G1 F1800 X-40.11 Y121.109 E344.7994
G0 F3600 X-37.282 Y121.109
G1 F1800 X-121.109 Y37.282 E355.94929
G0 F3600 X-121.109 Y34.453
G1 F1800 X-34.453 Y121.109 E367.47546
G0 F3600 X-31.625 Y121.109
G1 F1800 X-121.109 Y31.625 E379.3778
G0 F3600 X-121.109 Y28.796
G1 F1800 X-28.796 Y121.109 E391.65641
G0 F3600 X-25.968 Y121.109
G1 F1800 X-121.109 Y25.968 E404.31119
G0 F3600 X-121.109 Y23.14
G1 F1800 X-23.14 Y121.109 E417.34211
G0 F3600 X-20.311 Y121.109
G1 F1800 X-121.109 Y20.311 E430.74933
G0 F3600 X-121.109 Y17.483
G1 F1800 X-17.483 Y121.109 E444.5327
G0 F3600 X-14.654 Y121.109
G1 F1800 X-121.109 Y14.654 E458.69235
G0 F3600 X-121.109 Y11.826
G1 F1800 X-11.826 Y121.109 E473.22816
G0 F3600 X-8.997 Y121.109
G1 F1800 X-121.109 Y8.997 E488.14026
G0 F3600 X-121.109 Y6.169
G1 F1800 X-6.169 Y121.109 E503.42851
G0 F3600 X-3.341 Y121.109
G1 F1800 X-121.109 Y3.341 E519.09292
G0 F3600 X-121.109 Y0.512
G1 F1800 X-.512 Y121.109 E535.13362
G0 F3600 X2.315 Y121.109
G1 F1800 X-121.109 Y-2.315 E551.55033
G0 F3600 X-121.109 Y-5.144
G1 F1800 X5.144 Y121.109 E568.34333
G0 F3600 X7.972 Y121.109
G1 F1800 X-121.109 Y-7.972 E585.51249
G0 F3600 X-121.109 Y-10.801
G1 F1800 X10.801 Y121.109 E603.05793
G0 F3600 X13.629 Y121.109
G1 F1800 X-121.109 Y-13.629 E620.97953
G0 F3600 X-121.109 Y-16.457
G1 F1800 X16.457 Y121.109 E639.27729
G0 F3600 X19.286 Y121.109
G1 F1800 X-121.109 Y-19.286 E657.95133
G0 F3600 X-121.109 Y-22.114
G1 F1800 X22.114 Y121.109 E677.00152
G0 F3600 X24.943 Y121.109
G1 F1800 X-121.109 Y-24.943 E696.428
G0 F3600 X-121.109 Y-27.771
G1 F1800 X27.771 Y121.109 E716.23064
G0 F3600 X30.6 Y121.109
G1 F1800 X-121.109 Y-30.6 E736.40956
G0 F3600 X-121.109 Y-33.428
G1 F1800 X33.428 Y121.109 E756.96464
G0 F3600 X36.256 Y121.109
G1 F1800 X-121.109 Y-36.256 E777.89587
G0 F3600 X-121.109 Y-39.085
G1 F1800 X39.085 Y121.109 E799.20339
G0 F3600 X41.913 Y121.109
G1 F1800 X-121.109 Y-41.913 E820.88706
G0 F3600 X-121.109 Y-44.742
G1 F1800 X44.742 Y121.109 E842.94703
G0 F3600 X47.57 Y121.109
G1 F1800 X-121.109 Y-47.57 E865.38314
G0 F3600 X-121.109 Y-50.399
G1 F1800 X50.399 Y121.109 E888.19554
G0 F3600 X53.227 Y121.109
G1 F1800 X-121.109 Y-53.227 E911.3841
G0 F3600 X-121.109 Y-56.055
G1 F1800 X56.055 Y121.109 E934.94881
G0 F3600 X58.884 Y121.109
G1 F1800 X-121.109 Y-58.884 E958.88981
G0 F3600 X-121.109 Y-61.712
G1 F1800 X61.712 Y121.109 E983.20696
G0 F3600 X64.541 Y121.109
G1 F1800 X-121.109 Y-64.541 E1007.9004
G0 F3600 X-121.109 Y-67.369
G1 F1800 X67.369 Y121.109 E1032.97
G0 F3600 X70.198 Y121.109
G1 F1800 X-121.109 Y-70.198 E1058.41588
G0 F3600 X-121.109 Y-73.026
G1 F1800 X73.026 Y121.109 E1084.23792
G0 F3600 X75.854 Y121.109
G1 F1800 X-121.109 Y-75.854 E1110.43611
G0 F3600 X-121.109 Y-78.683
G1 F1800 X78.683 Y121.109 E1137.01058
G0 F3600 X81.511 Y121.109
G1 F1800 X-121.109 Y-81.511 E1163.96122
G0 F3600 X-121.109 Y-84.34
G1 F1800 X84.34 Y121.109 E1191.28814
G0 F3600 X87.168 Y121.109
G1 F1800 X-121.109 Y-87.168 E1218.99121
G0 F3600 X-121.109 Y-89.997
G1 F1800 X89.997 Y121.109 E1247.07057
G0 F3600 X92.825 Y121.109
G1 F1800 X-121.109 Y-92.825 E1275.52609
G0 F3600 X-121.109 Y-95.653
G1 F1800 X95.653 Y121.109 E1304.35776
G0 F3600 X98.482 Y121.109
G1 F1800 X-121.109 Y-98.482 E1333.56571
G0 F3600 X-121.109 Y-101.31
G1 F1800 X101.31 Y121.109 E1363.14983
G0 F3600 X104.139 Y121.109
G1 F1800 X-121.109 Y-104.139 E1393.11022
G0 F3600 X-121.109 Y-106.967
G1 F1800 X106.967 Y121.109 E1423.44678
G0 F3600 X109.796 Y121.109
G1 F1800 X-121.109 Y-109.796 E1454.15962
G0 F3600 X-121.109 Y-112.624
G1 F1800 X112.624 Y121.109 E1485.24861
G0 F3600 X115.452 Y121.109
G1 F1800 X-121.109 Y-115.452 E1516.71376
G0 F3600 X-121.109 Y-118.281
G1 F1800 X118.281 Y121.109 E1548.5552
G0 F3600 X121.109 Y121.109
G1 F1800 X-121.109 Y-121.109 E1580.77279
G0 F3600 X-118.281 Y-121.109
G92 E0
G1 F1800 X121.109 Y118.281 E31.84144
G0 F3600 X121.109 Y115.452
G1 F1800 X-115.452 Y-121.109 E63.30659
G0 F3600 X-112.624 Y-121.109
G1 F1800 X121.109 Y112.624 E94.39558
G0 F3600 X121.109 Y109.796
G1 F1800 X-109.796 Y-121.109 E125.10842
G0 F3600 X-106.967 Y-121.109
G1 F1800 X121.109 Y106.967 E155.44497
G0 F3600 X121.109 Y104.139
G1 F1800 X-104.139 Y-121.109 E185.40537
G0 F3600 X-101.31 Y-121.109
G1 F1800 X121.109 Y101.31 E214.98948
G0 F3600 X121.109 Y98.482
G1 F1800 X-98.482 Y-121.109 E244.19744
G0 F3600 X-95.653 Y-121.109
G1 F1800 X121.109 Y95.653 E273.02911
G0 F3600 X121.109 Y92.825
G1 F1800 X-92.825 Y-121.109 E301.48463
G0 F3600 X-89.997 Y-121.109
G1 F1800 X121.109 Y89.997 E329.56399
G0 F3600 X121.109 Y87.168
G1 F1800 X-87.168 Y-121.109 E357.26706
G0 F3600 X-84.34 Y-121.109
G1 F1800 X121.109 Y84.34 E384.59398
G0 F3600 X121.109 Y81.511
G1 F1800 X-81.511 Y-121.109 E411.54461
G0 F3600 X-78.683 Y-121.109
G1 F1800 X121.109 Y78.683 E438.11909
G0 F3600 X121.109 Y75.854
G1 F1800 X-75.854 Y-121.109 E464.31728
G0 F3600 X-73.026 Y-121.109
G1 F1800 X121.109 Y73.026 E490.13932
G0 F3600 X121.109 Y70.198
G1 F1800 X-70.198 Y-121.109 E515.5852
G0 F3600 X-67.369 Y-121.109
G1 F1800 X121.109 Y67.369 E540.6548
G0 F3600 X121.109 Y64.541
G1 F1800 X-64.541 Y-121.109 E565.34824
G0 F3600 X-61.712 Y-121.109
G1 F1800 X121.109 Y61.712 E589.66539
G0 F3600 X121.109 Y58.884
G1 F1800 X-58.884 Y-121.109 E613.60639
G0 F3600 X-56.055 Y-121.109
G1 F1800 X121.109 Y56.055 E637.1711
G0 F3600 X121.109 Y53.227
G1 F1800 X-53.227 Y-121.109 E660.35966
G0 F3600 X-50.399 Y-121.109
G1 F1800 X121.109 Y50.399 E683.17206
G0 F3600 X121.109 Y47.57
G1 F1800 X-47.57 Y-121.109 E705.60817
G0 F3600 X-44.742 Y-121.109
G1 F1800 X121.109 Y44.742 E727.66813
G0 F3600 X121.109 Y41.913
G1 F1800 X-41.913 Y-121.109 E749.35181
G0 F3600 X-39.085 Y-121.109
G1 F1800 X121.109 Y39.085 E770.65933
G0 F3600 X121.109 Y36.256
G1 F1800 X-36.256 Y-121.109 E791.59056
G0 F3600 X-33.428 Y-121.109
G1 F1800 X121.109 Y33.428 E812.14564
G0 F3600 X121.109 Y30.6
G1 F1800 X-30.6 Y-121.109 E832.32456
G0 F3600 X-27.771 Y-121.109
G1 F1800 X121.109 Y27.771 E852.1272
G0 F3600 X121.109 Y24.943
G1 F1800 X-24.943 Y-121.109 E871.55368
G0 F3600 X-22.114 Y-121.109
G1 F1800 X121.109 Y22.114 E890.60387
G0 F3600 X121.109 Y19.286
G1 F1800 X-19.286 Y-121.109 E909.27791
G0 F3600 X-16.457 Y-121.109
G1 F1800 X121.109 Y16.457 E927.57567
G0 F3600 X121.109 Y13.629
G1 F1800 X-13.629 Y-121.109 E945.49726
G0 F3600 X-10.801 Y-121.109
G1 F1800 X121.109 Y10.801 E963.04271
G0 F3600 X121.109 Y7.972
G1 F1800 X-7.972 Y-121.109 E980.21187
G0 F3600 X-5.144 Y-121.109
G1 F1800 X121.109 Y5.144 E997.00487
G0 F3600 X121.109 Y2.315
G1 F1800 X-2.315 Y-121.109 E1013.42158
G0 F3600 X0.512 Y-121.109
G1 F1800 X121.109 Y-.512 E1029.46228
G0 F3600 X121.109 Y-3.341
G1 F1800 X3.341 Y-121.109 E1045.12668
G0 F3600 X6.169 Y-121.109
G1 F1800 X121.109 Y-6.169 E1060.41494
G0 F3600 X121.109 Y-8.997
G1 F1800 X8.997 Y-121.109 E1075.32703
G0 F3600 X11.826 Y-121.109
G1 F1800 X121.109 Y-11.826 E1089.86284
G0 F3600 X121.109 Y-14.654
G1 F1800 X14.654 Y-121.109 E1104.0225
G0 F3600 X17.483 Y-121.109
G1 F1800 X121.109 Y-17.483 E1117.80587
G0 F3600 X121.109 Y-20.311
G1 F1800 X20.311 Y-121.109 E1131.21308
G0 F3600 X23.14 Y-121.109
G1 F1800 X121.109 Y-23.14 E1144.24401
G0 F3600 X121.109 Y-25.968
G1 F1800 X25.968 Y-121.109 E1156.89878
G0 F3600 X28.796 Y-121.109
G1 F1800 X121.109 Y-28.796 E1169.1774
G0 F3600 X121.109 Y-31.625
G1 F1800 X31.625 Y-121.109 E1181.07973
G0 F3600 X34.453 Y-121.109
G1 F1800 X121.109 Y-34.453 E1192.60591
G0 F3600 X121.109 Y-37.282
G1 F1800 X37.282 Y-121.109 E1203.7558
G0 F3600 X40.11 Y-121.109
G1 F1800 X121.109 Y-40.11 E1214.52954
G0 F3600 X121.109 Y-42.939
G1 F1800 X42.939 Y-121.109 E1224.92699
G0 F3600 X45.767 Y-121.109
G1 F1800 X121.109 Y-45.767 E1234.94828
G0 F3600 X121.109 Y-48.595
G1 F1800 X48.595 Y-121.109 E1244.59342
G0 F3600 X51.424 Y-121.109
G1 F1800 X121.109 Y-51.424 E1253.86227
G0 F3600 X121.109 Y-54.252
G1 F1800 X54.252 Y-121.109 E1262.75497
G0 F3600 X57.081 Y-121.109
G1 F1800 X121.109 Y-57.081 E1271.27138
G0 F3600 X121.109 Y-59.909
G1 F1800 X59.909 Y-121.109 E1279.41163
G0 F3600 X62.738 Y-121.109
G1 F1800 X121.109 Y-62.738 E1287.1756
G0 F3600 X121.109 Y-65.566
G1 F1800 X65.566 Y-121.109 E1294.56342
G0 F3600 X68.394 Y-121.109
G1 F1800 X121.109 Y-68.394 E1301.57508
G0 F3600 X121.109 Y-71.223
G1 F1800 X71.223 Y-121.109 E1308.21045
G0 F3600 X74.051 Y-121.109
G1 F1800 X121.109 Y-74.051 E1314.46967
G0 F3600 X121.109 Y-76.88
G1 F1800 X76.88 Y-121.109 E1320.3526
G0 F3600 X79.708 Y-121.109
G1 F1800 X121.109 Y-79.708 E1325.85938
G0 F3600 X121.109 Y-82.537
G1 F1800 X82.537 Y-121.109 E1330.98987
G0 F3600 X85.365 Y-121.109
G1 F1800 X121.109 Y-85.365 E1335.7442
G0 F3600 X121.109 Y-88.193
G1 F1800 X88.193 Y-121.109 E1340.12238
G0 F3600 X91.022 Y-121.109
G1 F1800 X121.109 Y-91.022 E1344.12428
G0 F3600 X121.109 Y-93.85
G1 F1800 X93.85 Y-121.109 E1347.75002
G0 F3600 X96.679 Y-121.109
G1 F1800 X121.109 Y-96.679 E1350.99947
G0 F3600 X121.109 Y-99.507
G1 F1800 X99.507 Y-121.109 E1353.87277
G0 F3600 X102.336 Y-121.109
G1 F1800 X121.109 Y-102.336 E1356.36978
G0 F3600 X121.109 Y-105.164
G1 F1800 X105.164 Y-121.109 E1358.49063
G0 F3600 X107.992 Y-121.109
G1 F1800 X121.109 Y-107.992 E1360.23533
G0 F3600 X121.109 Y-110.821
G1 F1800 X110.821 Y-121.109 E1361.60375
G0 F3600 X113.649 Y-121.109
G1 F1800 X121.109 Y-113.649 E1362.59601
G0 F3600 X121.109 Y-116.478
G1 F1800 X116.478 Y-121.109 E1363.21198
G0 F3600 X119.306 Y-121.109
G1 F1800 X121.109 Y-119.306 E1363.4518
;MESH:NONMESH
G0 F600 X121.109 Y-119.306 Z2.3
G0 F3600 X-123.93 Y123.93
G0 X-124 Y124
;TIME_ELAPSED:1064.314489
;LAYER:1
M106 S255
;TYPE:WALL-OUTER
;MESH:Cube(1).STL
G1 F1800 X-124 Y-124 E1518.9524
G1 X124 Y-124 E1674.453
G92 E0
G1 X124 Y124 E155.5006
G1 X-124 Y124 E311.0012
G0 F5400 X-124 Y123
G0 X-122 Y122
;MESH:NONMESH
G0 F600 X-122 Y122 Z4.3
G0 F5400 X-123.93 Y123.93
G0 X-124 Y124
;TIME_ELAPSED:1097.783002
;LAYER:2
;TYPE:WALL-OUTER
;MESH:Cube(1).STL
G1 F1800 X-124 Y-124 E466.5018
G1 X124 Y-124 E622.0024
G1 X124 Y124 E777.503
G1 X-124 Y124 E933.0036
G0 F7200 X-124 Y123
G0 X-122 Y122
;MESH:NONMESH
G0 F600 X-122 Y122 Z6.3
G0 F7200 X-123.93 Y123.93
G0 X-124 Y124
;TIME_ELAPSED:1131.237524
;LAYER:3
;TYPE:WALL-OUTER
;MESH:Cube(1).STL
G1 F1800 X-124 Y-124 E1088.5042
G1 X124 Y-124 E1244.0048
G1 X124 Y124 E1399.50541
G1 X-124 Y124 E1555.00601
G0 F7200 X-124 Y123
G0 X-122 Y122
;MESH:NONMESH
G0 F600 X-122 Y122 Z8.3
G0 F7200 X-123.93 Y123.93
G0 X-124 Y124
;TIME_ELAPSED:1164.692045
;LAYER:4
;TYPE:WALL-OUTER
;MESH:Cube(1).STL
G1 F1800 X-124 Y-124 E1710.50661
G92 E0
G1 X124 Y-124 E155.5006
G1 X124 Y124 E311.0012
G1 X-124 Y124 E466.5018
G0 F7200 X-124 Y123
G0 X-122 Y122
;MESH:NONMESH
G0 F600 X-122 Y122 Z10.3
G0 F7200 X-123.93 Y123.93
G0 X-124 Y124
;TIME_ELAPSED:1198.152374
;LAYER:5
;TYPE:WALL-OUTER
;MESH:Cube(1).STL
G1 F1800 X-124 Y-124 E622.0024
G1 X124 Y-124 E777.503
G1 X124 Y124 E933.0036
G1 X-124 Y124 E1088.5042
G0 F7200 X-124 Y123
G0 X-122 Y122
;MESH:NONMESH
G0 F600 X-122 Y122 Z12.3
G0 F7200 X-123.93 Y123.93
G0 X-124 Y124
;TIME_ELAPSED:1231.606895
;LAYER:6
;TYPE:WALL-OUTER
;MESH:Cube(1).STL
G1 F1800 X-124 Y-124 E1244.0048
G1 X124 Y-124 E1399.50541
G1 X124 Y124 E1555.00601
G1 X-124 Y124 E1710.50661
G0 F7200 X-124 Y123
G0 X-122 Y122
;MESH:NONMESH
G0 F600 X-122 Y122 Z14.3
G0 F7200 X-123.93 Y123.93
G0 X-124 Y124
;TIME_ELAPSED:1265.061417
;LAYER:7
;TYPE:WALL-OUTER
;MESH:Cube(1).STL
G92 E0
G1 F1800 X-124 Y-124 E155.5006
G1 X124 Y-124 E311.0012
G1 X124 Y124 E466.5018
G1 X-124 Y124 E622.0024
G0 F7200 X-124 Y123
G0 X-122 Y122
;MESH:NONMESH
G0 F600 X-122 Y122 Z16.3
G0 F7200 X-123.93 Y123.93
G0 X-124 Y124
;TIME_ELAPSED:1298.516952
;LAYER:8
;TYPE:WALL-OUTER
;MESH:Cube(1).STL
G1 F1800 X-124 Y-124 E777.503
G1 X124 Y-124 E933.0036
G1 X124 Y124 E1088.5042
G1 X-124 Y124 E1244.0048
G0 F7200 X-124 Y123
G0 X-122 Y122
;MESH:NONMESH
G0 F600 X-122 Y122 Z18.3
G0 F7200 X-123.93 Y123.93
G0 X-124 Y124
;TIME_ELAPSED:1331.971473
;LAYER:9
;TYPE:WALL-OUTER
;MESH:Cube(1).STL
G1 F1800 X-124 Y-124 E1399.50541
G1 X124 Y-124 E1555.00601
G1 X124 Y124 E1710.50661
G92 E0
G1 X-124 Y124 E155.5006
G0 F7200 X-124 Y123
G0 X-122 Y122
;MESH:NONMESH
G0 F600 X-122 Y122 Z20.3
G0 F7200 X-123.93 Y123.93
G0 X-124 Y124
;TIME_ELAPSED:1365.432982
;LAYER:10
;TYPE:WALL-OUTER
;MESH:Cube(1).STL
G1 F1800 X-124 Y-124 E311.0012
G1 X124 Y-124 E466.5018
G1 X124 Y124 E622.0024
G1 X-124 Y124 E777.503
G0 F7200 X-124 Y123
G0 X-122 Y122
;MESH:NONMESH
G0 F600 X-122 Y122 Z22.3
G0 F7200 X-123.93 Y123.93
G0 X-124 Y124
;TIME_ELAPSED:1398.887503
;LAYER:11
;TYPE:WALL-OUTER
;MESH:Cube(1).STL
G1 F1800 X-124 Y-124 E933.0036
G1 X124 Y-124 E1088.5042
G1 X124 Y124 E1244.0048
G1 X-124 Y124 E1399.50541
G0 F7200 X-124 Y123
G0 X-122 Y122
;MESH:NONMESH
G0 F600 X-122 Y122 Z24.3
G0 F7200 X-123.93 Y123.93
G0 X-124 Y124
;TIME_ELAPSED:1432.342025
;LAYER:12
;TYPE:WALL-OUTER
;MESH:Cube(1).STL
G1 F1800 X-124 Y-124 E1555.00601
G1 X124 Y-124 E1710.50661
G92 E0
G1 X124 Y124 E155.5006
G1 X-124 Y124 E311.0012
G0 F7200 X-124 Y123
G0 X-122 Y122
;MESH:NONMESH
G0 F600 X-122 Y122 Z26.3
G0 F7200 X-123.93 Y123.93
G0 X-124 Y124
;TIME_ELAPSED:1465.802354
;LAYER:13
;TYPE:WALL-OUTER
;MESH:Cube(1).STL
G1 F1800 X-124 Y-124 E466.5018
G1 X124 Y-124 E622.0024
G1 X124 Y124 E777.503
G1 X-124 Y124 E933.0036
G0 F7200 X-124 Y123
G0 X-122 Y122
;MESH:NONMESH
G0 F600 X-122 Y122 Z28.3
G0 F7200 X-123.93 Y123.93
G0 X-124 Y124
;TIME_ELAPSED:1499.256875
;LAYER:14
;TYPE:WALL-OUTER
;MESH:Cube(1).STL
G1 F1800 X-124 Y-124 E1088.5042
G1 X124 Y-124 E1244.0048
G1 X124 Y124 E1399.50541
G1 X-124 Y124 E1555.00601
G0 F7200 X-124 Y123
G0 X-122 Y122
;MESH:NONMESH
