;FLAVOR:Marlin
;TIME:10460
;Filament used: 221.445m
;Layer height: 2
;MINX:-129
;MINY:-129
;MINZ:0.3
;MAXX:129
;MAXY:129
;MAXZ:250.3
;Generated with Cura_SteamEngine master
M104 S200
M105
M109 S200
M82 ;absolute extrusion mode
G28 ;Home
G1 Z15.0 F6000 ;Move the platform down 15mm
;Prime the extruder
G92 E0
G1 F200 E3
G92 E0
G92 E0
G92 E0
G1 F1500 E-6.5
;LAYER_COUNT:126
;LAYER:0
M107
G0 F3600 X129 Y124.314 Z0.3
;TYPE:SKIRT
G1 F1500 E0
G1 F1800 X128.991 Y125.041 E0.06838
G1 X128.944 Y125.604 E0.12152
G1 X128.818 Y126.155 E0.17468
G1 X128.616 Y126.683 E0.22785
G1 X128.341 Y127.177 E0.28102
G1 X127.999 Y127.627 E0.33418
G1 X127.597 Y128.025 E0.38739
G1 X127.144 Y128.362 E0.44049
G1 X126.647 Y128.632 E0.49369
G1 X126.117 Y128.829 E0.54687
G1 X125.565 Y128.95 E0.60002
G1 X124.782 Y128.998 E0.6738
G1 X124.67 Y129 E0.68434
G1 X-124.345 Y129 E24.10489
G1 X-125.043 Y128.991 E24.17054
G1 X-125.606 Y128.943 E24.22369
G1 X-126.157 Y128.817 E24.27685
G1 X-126.685 Y128.615 E24.33002
G1 X-127.179 Y128.34 E24.38319
G1 X-127.629 Y127.998 E24.43635
G1 X-128.027 Y127.596 E24.48956
G1 X-128.363 Y127.142 E24.54268
G1 X-128.633 Y126.645 E24.59588
G1 X-128.83 Y126.115 E24.64906
G1 X-128.95 Y125.563 E24.70219
G1 X-128.999 Y124.766 E24.77729
G1 X-129 Y-124.38 E48.21016
G1 X-128.991 Y-125.045 E48.27271
G1 X-128.943 Y-125.608 E48.32586
G1 X-128.817 Y-126.159 E48.37902
G1 X-128.614 Y-126.687 E48.43222
G1 X-128.338 Y-127.181 E48.48544
G1 X-127.996 Y-127.631 E48.5386
G1 X-127.594 Y-128.028 E48.59174
G1 X-127.14 Y-128.365 E48.64492
G1 X-126.643 Y-128.634 E48.69807
G1 X-126.113 Y-128.831 E48.75125
G1 X-125.56 Y-128.95 E48.80446
G1 X-124.782 Y-128.998 E48.87777
G1 X-124.67 Y-129 E48.8883
G1 X124.35 Y-129 E72.30933
G1 X125.048 Y-128.99 E72.37498
G1 X125.612 Y-128.942 E72.42822
G1 X126.162 Y-128.815 E72.48131
G1 X126.69 Y-128.611 E72.53455
G1 X127.184 Y-128.336 E72.58772
G1 X127.633 Y-127.993 E72.64087
G1 X128.03 Y-127.591 E72.694
G1 X128.367 Y-127.136 E72.74726
G1 X128.635 Y-126.639 E72.80037
G1 X128.831 Y-126.109 E72.85351
G1 X128.951 Y-125.556 E72.90673
G1 X128.998 Y-124.782 E72.97967
G1 X129 Y-124.67 E72.9902
G1 X129 Y124.314 E96.40784
G1 F1500 E89.90784
;MESH:MediumCube.STL
G0 F3600 X123.986 Y123.986
G0 X-123.9 Y123.93
G1 F1500 E96.40784
G0 F3600 X-124 Y124
;TYPE:WALL-OUTER
G1 F1800 X-124 Y-124 E119.73293
G1 X124 Y-124 E143.05802
G1 X124 Y124 E166.38311
G1 X-124 Y124 E189.7082
G0 F3600 X-124 Y123
G0 X-123.9 Y123
G0 X-122.01 Y122.01
;TYPE:SKIN
G1 F1800 X-122.01 Y-122.01 E212.65896
G1 X122.01 Y-122.01 E235.60972
G1 X122.01 Y122.01 E258.56048
G1 X-122.01 Y122.01 E281.51124
G0 F3600 X-121.109 Y119.306
G1 F1800 X-119.306 Y121.109 E281.75106
G0 F3600 X-116.478 Y121.109
G1 F1800 X-121.109 Y116.478 E282.36703
G0 F3600 X-121.109 Y113.649
G1 F1800 X-113.649 Y121.109 E283.35929
G0 F3600 X-110.821 Y121.109
G1 F1800 X-121.109 Y110.821 E284.7277
G0 F3600 X-121.109 Y107.992
G1 F1800 X-107.992 Y121.109 E286.47241
G0 F3600 X-105.164 Y121.109
G1 F1800 X-121.109 Y105.164 E288.59326
G0 F3600 X-121.109 Y102.336
G1 F1800 X-102.336 Y121.109 E291.09027
G0 F3600 X-99.507 Y121.109
G1 F1800 X-121.109 Y99.507 E293.96357
G0 F3600 X-121.109 Y96.679
G1 F1800 X-96.679 Y121.109 E297.21302
G0 F3600 X-93.85 Y121.109
G1 F1800 X-121.109 Y93.85 E300.83876
G0 F3600 X-121.109 Y91.022
G1 F1800 X-91.022 Y121.109 E304.84065
G0 F3600 X-88.193 Y121.109
G1 F1800 X-121.109 Y88.193 E309.21884
G0 F3600 X-121.109 Y85.365
G1 F1800 X-85.365 Y121.109 E313.97317
G0 F3600 X-82.537 Y121.109
G1 F1800 X-121.109 Y82.537 E319.10366
G0 F3600 X-121.109 Y79.708
G1 F1800 X-79.708 Y121.109 E324.61044
G0 F3600 X-76.88 Y121.109
G1 F1800 X-121.109 Y76.88 E330.49337
G0 F3600 X-121.109 Y74.051
G1 F1800 X-74.051 Y121.109 E336.75259
G0 F3600 X-71.223 Y121.109
G1 F1800 X-121.109 Y71.223 E343.38796
G0 F3600 X-121.109 Y68.394
G1 F1800 X-68.394 Y121.109 E350.39962
G0 F3600 X-65.566 Y121.109
G1 F1800 X-121.109 Y65.566 E357.78743
G0 F3600 X-121.109 Y62.738
G1 F1800 X-62.738 Y121.109 E365.5514
G0 F3600 X-59.909 Y121.109
G1 F1800 X-121.109 Y59.909 E373.69166
G0 F3600 X-121.109 Y57.081
G1 F1800 X-57.081 Y121.109 E382.20807
G0 F3600 X-54.252 Y121.109
G1 F1800 X-121.109 Y54.252 E391.10077
G0 F3600 X-121.109 Y51.424
G1 F1800 X-51.424 Y121.109 E400.36962
G0 F3600 X-48.595 Y121.109
G1 F1800 X-121.109 Y48.595 E410.01476
G0 F3600 X-121.109 Y45.767
G1 F1800 X-45.767 Y121.109 E420.03605
G0 F3600 X-42.939 Y121.109
G1 F1800 X-121.109 Y42.939 E430.4335
G0 F3600 X-121.109 Y40.11
G1 F1800 X-40.11 Y121.109 E441.20724
G0 F3600 X-37.282 Y121.109
G1 F1800 X-121.109 Y37.282 E452.35713
G0 F3600 X-121.109 Y34.453
G1 F1800 X-34.453 Y121.109 E463.8833
G0 F3600 X-31.625 Y121.109
G1 F1800 X-121.109 Y31.625 E475.78563
G0 F3600 X-121.109 Y28.796
G1 F1800 X-28.796 Y121.109 E488.06425
G0 F3600 X-25.968 Y121.109
G1 F1800 X-121.109 Y25.968 E500.71903
G0 F3600 X-121.109 Y23.14
G1 F1800 X-23.14 Y121.109 E513.74995
G0 F3600 X-20.311 Y121.109
G1 F1800 X-121.109 Y20.311 E527.15717
G0 F3600 X-121.109 Y17.483
G1 F1800 X-17.483 Y121.109 E540.94054
G0 F3600 X-14.654 Y121.109
G1 F1800 X-121.109 Y14.654 E555.10019
G0 F3600 X-121.109 Y11.826
G1 F1800 X-11.826 Y121.109 E569.636
G0 F3600 X-8.997 Y121.109
G1 F1800 X-121.109 Y8.997 E584.5481
G0 F3600 X-121.109 Y6.169
G1 F1800 X-6.169 Y121.109 E599.83635
G0 F3600 X-3.341 Y121.109
G1 F1800 X-121.109 Y3.341 E615.50076
G0 F3600 X-121.109 Y0.512
G1 F1800 X-.512 Y121.109 E631.54145
G0 F3600 X2.315 Y121.109
G1 F1800 X-121.109 Y-2.315 E647.95817
G0 F3600 X-121.109 Y-5.144
G1 F1800 X5.144 Y121.109 E664.75117
G0 F3600 X7.972 Y121.109
G1 F1800 X-121.109 Y-7.972 E681.92033
G0 F3600 X-121.109 Y-10.801
G1 F1800 X10.801 Y121.109 E699.46577
G0 F3600 X13.629 Y121.109
G1 F1800 X-121.109 Y-13.629 E717.38737
G0 F3600 X-121.109 Y-16.457
G1 F1800 X16.457 Y121.109 E735.68512
G0 F3600 X19.286 Y121.109
G1 F1800 X-121.109 Y-19.286 E754.35916
G0 F3600 X-121.109 Y-22.114
G1 F1800 X22.114 Y121.109 E773.40936
G0 F3600 X24.943 Y121.109
G1 F1800 X-121.109 Y-24.943 E792.83584
G0 F3600 X-121.109 Y-27.771
G1 F1800 X27.771 Y121.109 E812.63848
G0 F3600 X30.6 Y121.109
G1 F1800 X-121.109 Y-30.6 E832.8174
G0 F3600 X-121.109 Y-33.428
G1 F1800 X33.428 Y121.109 E853.37248
G0 F3600 X36.256 Y121.109
G1 F1800 X-121.109 Y-36.256 E874.30371
G0 F3600 X-121.109 Y-39.085
G1 F1800 X39.085 Y121.109 E895.61123
G0 F3600 X41.913 Y121.109
G1 F1800 X-121.109 Y-41.913 E917.2949
G0 F3600 X-121.109 Y-44.742
G1 F1800 X44.742 Y121.109 E939.35486
G0 F3600 X47.57 Y121.109
G1 F1800 X-121.109 Y-47.57 E961.79098
G0 F3600 X-121.109 Y-50.399
G1 F1800 X50.399 Y121.109 E984.60338
G0 F3600 X53.227 Y121.109
G1 F1800 X-121.109 Y-53.227 E1007.79194
G0 F3600 X-121.109 Y-56.055
G1 F1800 X56.055 Y121.109 E1031.35665
G0 F3600 X58.884 Y121.109
G1 F1800 X-121.109 Y-58.884 E1055.29765
G0 F3600 X-121.109 Y-61.712
G1 F1800 X61.712 Y121.109 E1079.6148
G0 F3600 X64.541 Y121.109
G1 F1800 X-121.109 Y-64.541 E1104.30824
G0 F3600 X-121.109 Y-67.369
G1 F1800 X67.369 Y121.109 E1129.37784
G0 F3600 X70.198 Y121.109
G1 F1800 X-121.109 Y-70.198 E1154.82372
G0 F3600 X-121.109 Y-73.026
G1 F1800 X73.026 Y121.109 E1180.64576
G0 F3600 X75.854 Y121.109
G1 F1800 X-121.109 Y-75.854 E1206.84395
G0 F3600 X-121.109 Y-78.683
G1 F1800 X78.683 Y121.109 E1233.41842
G0 F3600 X81.511 Y121.109
G1 F1800 X-121.109 Y-81.511 E1260.36906
G0 F3600 X-121.109 Y-84.34
G1 F1800 X84.34 Y121.109 E1287.69598
G0 F3600 X87.168 Y121.109
G1 F1800 X-121.109 Y-87.168 E1315.39905
G0 F3600 X-121.109 Y-89.997
G1 F1800 X89.997 Y121.109 E1343.47841
G0 F3600 X92.825 Y121.109
G1 F1800 X-121.109 Y-92.825 E1371.93393
G0 F3600 X-121.109 Y-95.653
G1 F1800 X95.653 Y121.109 E1400.7656
G0 F3600 X98.482 Y121.109
G1 F1800 X-121.109 Y-98.482 E1429.97355
G0 F3600 X-121.109 Y-101.31
G1 F1800 X101.31 Y121.109 E1459.55766
G0 F3600 X104.139 Y121.109
G1 F1800 X-121.109 Y-104.139 E1489.51806
G0 F3600 X-121.109 Y-106.967
G1 F1800 X106.967 Y121.109 E1519.85462
G0 F3600 X109.796 Y121.109
G1 F1800 X-121.109 Y-109.796 E1550.56746
G0 F3600 X-121.109 Y-112.624
G1 F1800 X112.624 Y121.109 E1581.65645
G0 F3600 X115.452 Y121.109
G92 E0
G1 F1800 X-121.109 Y-115.452 E31.46515
G0 F3600 X-121.109 Y-118.281
G1 F1800 X118.281 Y121.109 E63.30659
G0 F3600 X121.109 Y121.109
G1 F1800 X-121.109 Y-121.109 E95.52418
G0 F3600 X-118.281 Y-121.109
G1 F1800 X121.109 Y118.281 E127.36561
G0 F3600 X121.109 Y115.452
G1 F1800 X-115.452 Y-121.109 E158.83076
G0 F3600 X-112.624 Y-121.109
G1 F1800 X121.109 Y112.624 E189.91976
G0 F3600 X121.109 Y109.796
G1 F1800 X-109.796 Y-121.109 E220.6326
G0 F3600 X-106.967 Y-121.109
G1 F1800 X121.109 Y106.967 E250.96915
G0 F3600 X121.109 Y104.139
G1 F1800 X-104.139 Y-121.109 E280.92955
G0 F3600 X-101.31 Y-121.109
G1 F1800 X121.109 Y101.31 E310.51366
G0 F3600 X121.109 Y98.482
G1 F1800 X-98.482 Y-121.109 E339.72162
G0 F3600 X-95.653 Y-121.109
G1 F1800 X121.109 Y95.653 E368.55329
G0 F3600 X121.109 Y92.825
G1 F1800 X-92.825 Y-121.109 E397.0088
G0 F3600 X-89.997 Y-121.109
G1 F1800 X121.109 Y89.997 E425.08816
G0 F3600 X121.109 Y87.168
G1 F1800 X-87.168 Y-121.109 E452.79124
G0 F3600 X-84.34 Y-121.109
G1 F1800 X121.109 Y84.34 E480.11816
G0 F3600 X121.109 Y81.511
G1 F1800 X-81.511 Y-121.109 E507.06879
G0 F3600 X-78.683 Y-121.109
G1 F1800 X121.109 Y78.683 E533.64327
G0 F3600 X121.109 Y75.854
G1 F1800 X-75.854 Y-121.109 E559.84146
G0 F3600 X-73.026 Y-121.109
G1 F1800 X121.109 Y73.026 E585.66349
G0 F3600 X121.109 Y70.198
G1 F1800 X-70.198 Y-121.109 E611.10938
G0 F3600 X-67.369 Y-121.109
G1 F1800 X121.109 Y67.369 E636.17897
G0 F3600 X121.109 Y64.541
G1 F1800 X-64.541 Y-121.109 E660.87241
G0 F3600 X-61.712 Y-121.109
G1 F1800 X121.109 Y61.712 E685.18956
G0 F3600 X121.109 Y58.884
G1 F1800 X-58.884 Y-121.109 E709.13056
G0 F3600 X-56.055 Y-121.109
G1 F1800 X121.109 Y56.055 E732.69527
G0 F3600 X121.109 Y53.227
G1 F1800 X-53.227 Y-121.109 E755.88383
G0 F3600 X-50.399 Y-121.109
G1 F1800 X121.109 Y50.399 E778.69623
G0 F3600 X121.109 Y47.57
G1 F1800 X-47.57 Y-121.109 E801.13235
G0 F3600 X-44.742 Y-121.109
G1 F1800 X121.109 Y44.742 E823.19231
G0 F3600 X121.109 Y41.913
G1 F1800 X-41.913 Y-121.109 E844.87598
G0 F3600 X-39.085 Y-121.109
G1 F1800 X121.109 Y39.085 E866.1835
G0 F3600 X121.109 Y36.256
G1 F1800 X-36.256 Y-121.109 E887.11474
G0 F3600 X-33.428 Y-121.109
G1 F1800 X121.109 Y33.428 E907.66981
G0 F3600 X121.109 Y30.6
G1 F1800 X-30.6 Y-121.109 E927.84874
G0 F3600 X-27.771 Y-121.109
G1 F1800 X121.109 Y27.771 E947.65137
G0 F3600 X121.109 Y24.943
G1 F1800 X-24.943 Y-121.109 E967.07786
G0 F3600 X-22.114 Y-121.109
G1 F1800 X121.109 Y22.114 E986.12805
G0 F3600 X121.109 Y19.286
G1 F1800 X-19.286 Y-121.109 E1004.80209
G0 F3600 X-16.457 Y-121.109
G1 F1800 X121.109 Y16.457 E1023.09984
G0 F3600 X121.109 Y13.629
G1 F1800 X-13.629 Y-121.109 E1041.02144
G0 F3600 X-10.801 Y-121.109
G1 F1800 X121.109 Y10.801 E1058.56689
G0 F3600 X121.109 Y7.972
G1 F1800 X-7.972 Y-121.109 E1075.73604
G0 F3600 X-5.144 Y-121.109
G1 F1800 X121.109 Y5.144 E1092.52904
G0 F3600 X121.109 Y2.315
G1 F1800 X-2.315 Y-121.109 E1108.94576
G0 F3600 X0.512 Y-121.109
G1 F1800 X121.109 Y-.512 E1124.98645
G0 F3600 X121.109 Y-3.341
G1 F1800 X3.341 Y-121.109 E1140.65086
G0 F3600 X6.169 Y-121.109
G1 F1800 X121.109 Y-6.169 E1155.93911
G0 F3600 X121.109 Y-8.997
G1 F1800 X8.997 Y-121.109 E1170.85121
G0 F3600 X11.826 Y-121.109
G1 F1800 X121.109 Y-11.826 E1185.38702
G0 F3600 X121.109 Y-14.654
G1 F1800 X14.654 Y-121.109 E1199.54668
G0 F3600 X17.483 Y-121.109
G1 F1800 X121.109 Y-17.483 E1213.33005
G0 F3600 X121.109 Y-20.311
G1 F1800 X20.311 Y-121.109 E1226.73726
G0 F3600 X23.14 Y-121.109
G1 F1800 X121.109 Y-23.14 E1239.76819
G0 F3600 X121.109 Y-25.968
G1 F1800 X25.968 Y-121.109 E1252.42296
G0 F3600 X28.796 Y-121.109
G1 F1800 X121.109 Y-28.796 E1264.70158
G0 F3600 X121.109 Y-31.625
G1 F1800 X31.625 Y-121.109 E1276.60391
G0 F3600 X34.453 Y-121.109
G1 F1800 X121.109 Y-34.453 E1288.13009
G0 F3600 X121.109 Y-37.282
G1 F1800 X37.282 Y-121.109 E1299.27998
G0 F3600 X40.11 Y-121.109
G1 F1800 X121.109 Y-40.11 E1310.05371
G0 F3600 X121.109 Y-42.939
G1 F1800 X42.939 Y-121.109 E1320.45116
G0 F3600 X45.767 Y-121.109
G1 F1800 X121.109 Y-45.767 E1330.47246
G0 F3600 X121.109 Y-48.595
G1 F1800 X48.595 Y-121.109 E1340.11759
G0 F3600 X51.424 Y-121.109
G1 F1800 X121.109 Y-51.424 E1349.38645
G0 F3600 X121.109 Y-54.252
G1 F1800 X54.252 Y-121.109 E1358.27914
G0 F3600 X57.081 Y-121.109
G1 F1800 X121.109 Y-57.081 E1366.79555
G0 F3600 X121.109 Y-59.909
G1 F1800 X59.909 Y-121.109 E1374.93581
G0 F3600 X62.738 Y-121.109
G1 F1800 X121.109 Y-62.738 E1382.69978
G0 F3600 X121.109 Y-65.566
G1 F1800 X65.566 Y-121.109 E1390.08759
G0 F3600 X68.394 Y-121.109
G1 F1800 X121.109 Y-68.394 E1397.09925
G0 F3600 X121.109 Y-71.223
G1 F1800 X71.223 Y-121.109 E1403.73463
G0 F3600 X74.051 Y-121.109
G1 F1800 X121.109 Y-74.051 E1409.99385
G0 F3600 X121.109 Y-76.88
G1 F1800 X76.88 Y-121.109 E1415.87678
G0 F3600 X79.708 Y-121.109
G1 F1800 X121.109 Y-79.708 E1421.38355
G0 F3600 X121.109 Y-82.537
G1 F1800 X82.537 Y-121.109 E1426.51404
G0 F3600 X85.365 Y-121.109
G1 F1800 X121.109 Y-85.365 E1431.26838
G0 F3600 X121.109 Y-88.193
G1 F1800 X88.193 Y-121.109 E1435.64656
G0 F3600 X91.022 Y-121.109
G1 F1800 X121.109 Y-91.022 E1439.64845
G0 F3600 X121.109 Y-93.85
G1 F1800 X93.85 Y-121.109 E1443.27419
G0 F3600 X96.679 Y-121.109
G1 F1800 X121.109 Y-96.679 E1446.52364
G0 F3600 X121.109 Y-99.507
G1 F1800 X99.507 Y-121.109 E1449.39694
G0 F3600 X102.336 Y-121.109
G1 F1800 X121.109 Y-102.336 E1451.89395
G0 F3600 X121.109 Y-105.164
G1 F1800 X105.164 Y-121.109 E1454.01481
G0 F3600 X107.992 Y-121.109
G1 F1800 X121.109 Y-107.992 E1455.75951
G0 F3600 X121.109 Y-110.821
G1 F1800 X110.821 Y-121.109 E1457.12792
G0 F3600 X113.649 Y-121.109
G1 F1800 X121.109 Y-113.649 E1458.12018
G0 F3600 X121.109 Y-116.478
G1 F1800 X116.478 Y-121.109 E1458.73616
G0 F3600 X119.306 Y-121.109
G1 F1800 X121.109 Y-119.306 E1458.97597
;MESH:NONMESH
G0 F600 X121.109 Y-119.306 Z2.3
G0 F3600 X-123.199 Y-10.062
;TIME_ELAPSED:1102.014032
;LAYER:1
M106 S255
;TYPE:FILL
;MESH:MediumCube.STL
G1 F2700 X10.062 Y123.199 E1577.14359
G92 E0
G1 X10.415 Y123.552
G0 F5400 X-10.062 Y123.199
G1 F2700 X123.199 Y-10.062 E118.16761
G1 X123.552 Y-10.415
G0 F5400 X123.199 Y10.062
G1 F2700 X-10.062 Y-123.199 E236.33522
G1 X-10.415 Y-123.552
G0 F5400 X10.062 Y-123.199
G1 F2700 X-123.199 Y10.062 E354.50283
G1 X-123.552 Y10.415
G0 F5400 X-123.199 Y103.074
G1 F2700 X-103.074 Y123.199 E372.34844
G1 X-102.721 Y123.552
G0 F5400 X-123.199 Y123.199
G1 F2700 X123.199 Y-123.199 E590.83894
G1 X123.552 Y-123.552
G0 F5400 X103.074 Y-123.199
G1 F2700 X123.199 Y-103.074 E608.68455
G1 X123.552 Y-102.721
G0 F5400 X123.199 Y103.074
G1 F2700 X103.074 Y123.199 E626.53015
G1 X102.721 Y123.552
G0 F5400 X123.199 Y123.199
G1 F2700 X-123.199 Y-123.199 E845.02066
G1 X-123.552 Y-123.552
G0 F5400 X-123.199 Y-103.074
G1 F2700 X-103.074 Y-123.199 E862.86626
G1 X-102.721 Y-123.552
G0 F5400 X-123.93 Y123.93
G0 X-124 Y124
;TYPE:WALL-OUTER
G1 F1800 X-124 Y-124 E1018.36686
G1 X124 Y-124 E1173.86746
G1 X124 Y124 E1329.36806
G1 X-124 Y124 E1484.86866
G0 F5400 X-124 Y123
G0 X-122 Y122
;MESH:NONMESH
G0 F600 X-122 Y122 Z4.3
G0 F5400 X-123.199 Y-10.062
;TIME_ELAPSED:1179.774793
;LAYER:2
;TYPE:FILL
;MESH:MediumCube.STL
G1 F3600 X10.062 Y123.199 E1603.03627
G92 E0
G1 X10.415 Y123.552
G0 F7200 X-10.062 Y123.199
G1 F3600 X123.199 Y-10.062 E118.16761
G1 X123.552 Y-10.415
G0 F7200 X123.199 Y10.062
G1 F3600 X-10.062 Y-123.199 E236.33522
G1 X-10.415 Y-123.552
G0 F7200 X10.062 Y-123.199
G1 F3600 X-123.199 Y10.062 E354.50283
G1 X-123.552 Y10.415
G0 F7200 X-123.199 Y103.074
G1 F3600 X-103.074 Y123.199 E372.34844
G1 X-102.721 Y123.552
G0 F7200 X-123.199 Y123.199
G1 F3600 X123.199 Y-123.199 E590.83894
G1 X123.552 Y-123.552
G0 F7200 X103.074 Y-123.199
G1 F3600 X123.199 Y-103.074 E608.68455
G1 X123.552 Y-102.721
G0 F7200 X123.199 Y103.074
G1 F3600 X103.074 Y123.199 E626.53015
G1 X102.721 Y123.552
G0 F7200 X123.199 Y123.199
G1 F3600 X-123.199 Y-123.199 E845.02066
G1 X-123.552 Y-123.552
G0 F7200 X-123.199 Y-103.074
G1 F3600 X-103.074 Y-123.199 E862.86626
G1 X-102.721 Y-123.552
G0 F7200 X-123.93 Y123.93
G0 X-124 Y124
